static/img/svg/calendar-remove.svg

<svg xmlns="http://www.w3.org/2000/svg" width="24" height="24" viewBox="0 0 24 24"><path d="M20.293 14.293L18 16.586l-2.293-2.293-1.414 1.414L16.586 18l-2.293 2.293 1.414 1.414L18 19.414l2.293 2.293 1.414-1.414L19.414 18l2.293-2.293z"/><path d="M21 4h-4V2h-2v2H9V2H7v2H3a1 1 0 0 0-1 1v16a1 1 0 0 0 1 1h10v-2H4V10h16v2.989h2V5a1 1 0 0 0-1-1zM4 8V6h3v1h2V6h6v1h2V6h3v2H4z"/><path d="M7 12h2v2H7zM7 16h2v2H7zM11 12h2v2h-2z"/></svg>

<svg xmlns="http://www.w3.org/2000/svg" width="24" height="24" viewBox="0 0 24 24"><path d="M20.293 14.293L18 16.586 15.707 14.293 14.293 15.707 16.586 18 14.293 20.293 15.707 21.707 18 19.414 20.293 21.707 21.707 20.293 19.414 18 21.707 15.707z"/><path d="M21,4h-4V2h-2v2H9V2H7v2H3C2.447,4,2,4.447,2,5v16c0,0.553,0.447,1,1,1h10v-2H4V10h16v2.989h2V5C22,4.447,21.553,4,21,4z M20,8H4V6h3v1h2V6h6v1h2V6h3V8z"/><path d="M7 12H9V14H7zM7 16H9V18H7zM11 12H13V14H11z"/></svg>
